svgs/duotone/location-exclamation.svg

<svg xmlns="http://www.w3.org/2000/svg" viewBox="0 0 384 512"><!--! Font Awesome Pro 6.4.2 by @fontawesome - https://fontawesome.com License - https://fontawesome.com/license (Commercial License) Copyright 2023 Fonticons, Inc. --><path class="fa-primary" style="fill:var(--fa-primary-color,inherit);opacity:var(--fa-primary-opacity,1);" d="M216 120c0-13.3-10.7-24-24-24s-24 10.7-24 24V232c0 13.3 10.7 24 24 24s24-10.7 24-24V120zM192 352a32 32 0 1 0 0-64 32 32 0 1 0 0 64z"/><path class="fa-secondary" style="fill:var(--fa-secondary-color,inherit);opacity:var(--fa-secondary-opacity,.4);" d="M215.7 499.2C267 435 384 279.4 384 192C384 86 298 0 192 0S0 86 0 192c0 87.4 117 243 168.3 307.2c12.3 15.3 35.1 15.3 47.4 0zM192 96c13.3 0 24 10.7 24 24V232c0 13.3-10.7 24-24 24s-24-10.7-24-24V120c0-13.3 10.7-24 24-24zM160 320a32 32 0 1 1 64 0 32 32 0 1 1 -64 0z"/></svg>

<svg xmlns="http://www.w3.org/2000/svg" viewBox="0 0 384 512"><!--! Font Awesome Pro 6.1.1 by @fontawesome - https://fontawesome.com License - https://fontawesome.com/license (Commercial License) Copyright 2022 Fonticons, Inc. --><defs><style>.fa-secondary{opacity:.4}</style></defs><path class="fa-primary" d="M216 232C216 245.3 205.3 256 192 256C178.7 256 168 245.3 168 232V120C168 106.7 178.7 96 192 96C205.3 96 216 106.7 216 120V232zM160 320C160 302.3 174.3 288 192 288C209.7 288 224 302.3 224 320C224 337.7 209.7 352 192 352C174.3 352 160 337.7 160 320z"/><path class="fa-secondary" d="M168.3 499.2C116.1 435 0 279.4 0 192C0 85.96 85.96 0 192 0C298 0 384 85.96 384 192C384 279.4 267 435 215.7 499.2C203.4 514.5 180.6 514.5 168.3 499.2H168.3zM168 120V232C168 245.3 178.7 256 192 256C205.3 256 216 245.3 216 232V120C216 106.7 205.3 96 192 96C178.7 96 168 106.7 168 120zM192 288C174.3 288 160 302.3 160 320C160 337.7 174.3 352 192 352C209.7 352 224 337.7 224 320C224 302.3 209.7 288 192 288z"/></svg>
